svg/design/easy_in_out_line.svg

<svg xmlns="http://www.w3.org/2000/svg" width="24" height="24" viewBox="0 0 24 24"><g fill="none" fill-rule="evenodd"><path d="M24,0 L24,24 L0,24 L0,0 L24,0 Z M12.5935,23.2578 L12.5819,23.2595 L12.5109,23.295 L12.4919,23.2987 L12.4767,23.295 L12.4057,23.2595 C12.3958,23.2564 12.387,23.259 12.3821,23.2649 L12.378,23.2758 L12.3609,23.7031 L12.3659,23.7235 L12.3769,23.7357 L12.4805,23.8097 L12.4953,23.8136 L12.5071,23.8097 L12.6107,23.7357 L12.6233,23.7197 L12.6267,23.7031 L12.6096,23.2758 C12.6076,23.2657 12.601,23.2593 12.5935,23.2578 Z M12.8584,23.1453 L12.8445,23.1473 L12.6598,23.2397 L12.6499,23.2499 L12.6472,23.2611 L12.6651,23.6906 L12.6699,23.7034 L12.6784,23.7105 L12.8793,23.8032 C12.8914,23.8069 12.9022,23.803 12.9078,23.7952 L12.9118,23.7812 L12.8777,23.1665 C12.8753,23.1546 12.8674,23.147 12.8584,23.1453 Z M12.143,23.1473 C12.1332,23.1424 12.1222,23.1453 12.1156,23.1526 L12.1099,23.1665 L12.0758,23.7812 C12.0751,23.7927 12.0828,23.8019 12.0926,23.8046 L12.1083,23.8032 L12.3092,23.7105 L12.3186,23.7024 L12.3225,23.6906 L12.3404,23.2611 L12.3372,23.2485 L12.3278,23.2397 L12.143,23.1473 Z"/><path fill="#09244B" d="M14.4818,5.85982 C15.8483,4.22005 17.6049,3 20,3 C20.5523,3 21,3.44772 21,4 C21,4.55228 20.5523,5 20,5 C18.3951,5 17.1517,5.77995 16.0182,7.14018 C14.8573,8.53335 13.9086,10.4189 12.8944,12.4472 L12.8626,12.5109 C11.8859,14.4643 10.8429,16.5506 9.51822,18.1402 C8.15175,19.78 6.39512,21 4,21 C3.44772,21 3,20.5523 3,20 C3,19.4477 3.44772,19 4,19 C5.60488,19 6.84825,18.22 7.98178,16.8598 C9.14275,15.4667 10.0914,13.5811 11.1056,11.5528 L11.1374,11.4891 C12.1141,9.53569 13.1571,7.44937 14.4818,5.85982 Z"/></g></svg>

<svg xmlns="http://www.w3.org/2000/svg" width="24" height="24"><g fill="none" fill-rule="evenodd"><path d="M24 0v24H0V0zM12.594 23.258l-.012.002-.071.035-.02.004-.014-.004-.071-.036c-.01-.003-.019 0-.024.006l-.004.01-.017.428.005.02.01.013.104.074.015.004.012-.004.104-.074.012-.016.004-.017-.017-.427c-.002-.01-.009-.017-.016-.018m.264-.113-.014.002-.184.093-.01.01-.003.011.018.43.005.012.008.008.201.092c.012.004.023 0 .029-.008l.004-.014-.034-.614c-.003-.012-.01-.02-.02-.022m-.715.002a.023.023 0 0 0-.027.006l-.006.014-.034.614c0 .012.007.02.017.024l.015-.002.201-.093.01-.008.003-.011.018-.43-.003-.012-.01-.01z"/><path fill="#09244B" d="M14.482 5.86C15.848 4.22 17.605 3 20 3a1 1 0 1 1 0 2c-1.605 0-2.848.78-3.982 2.14-1.16 1.393-2.11 3.279-3.124 5.307l-.031.064c-.977 1.953-2.02 4.04-3.345 5.63C8.152 19.78 6.395 21 4 21a1 1 0 1 1 0-2c1.605 0 2.848-.78 3.982-2.14 1.16-1.393 2.11-3.279 3.124-5.307l.031-.064c.977-1.953 2.02-4.04 3.345-5.63"/></g></svg>
